!!!OTL@@DE: Hans und Liesel
!!!COM: Woyna, Franz von
!!!ODT: ~1845
!!!OMD: Andante
!!!ONB: Dichter unbekannt
!!!OCL: Erk, Ludwig
!!!GCO: Deutscher Liederschatz, Band 1
**kern	**kern	**kern
*staff3	*staff2	*staff1
*Ipiano	*Ipiano	*Ivox
*>[A,B,B]	*>[A,B,B]	*>[A,B,B]
*>norep[A,B]	*>norep[A,B]	*>norep[A,B]
*>A	*>A	*>A
*clefF4	*clefG2	*clefG2
*k[b-e-a-d-]	*k[b-e-a-d-]	*k[b-e-a-d-]
*A-:	*A-:	*A-:
*M3/4	*M3/4	*M3/4
*MM84	*MM84	*MM84
4r	8.a-/L	4r
.	16a-/Jk	.
=1	=1	=1
4CC/	4a-/	2.r
4C\ 4En\ 4B-\	4g/	.
4C\ 4E\ 4B-\	4cc\	.
=2	=2	=2
4DD-/	2f/	2.r
4D-\ 4F\ 4A-\	.	.
4BB-\ 4F\ 4G\	(12ff\L	.
.	12dd-\	.
.	12b-\J)	.
=3	=3	=3
4C/	4..a-/	2.r
4F\ 4A-\	.	.
.	16cc\	.
4C\ 4En\ 4B-\	(8.g/L	.
.	16cc/Jk)	.
=4	=4	=4
4F\ 4A-\	2f/	4r
4FF/	.	4r
=!|:	=!|:	=!|:
*>B	*>B	*>B
4r	4r	8.a-/
.	.	16a-/
=5	=5	=5
2.CC/ 2.C/	4r	4a-/
.	4B-/ 4c/ 4en/	4g/
.	4B-/ 4c/ 4e/	4cc\
=6	=6	=6
2.GGG/ 2.GG/	4r	4cc\
.	4B-/ 4c/ 4en/	4en/
.	4B-/ 4c/ 4e/	4cc\
=7	=7	=7
2.AAA-/ 2.AA-/	4r	4cc\
.	4A-/ 4c/ 4f/	4f/
.	4A-/ 4c/ 4f/	8cc\
.	.	8cc\
=8	=8	=8
2.BBB-/ 2.BB-/	4r	4dd-\
.	4G/ 4d-/ 4f/	4b-\
.	4G/ 4d-/ 4f/	4g/
=9	=9	=9
2.CC/ 2.C/	4r	4f/
.	4A-/ 4c/ 4f/	4a-/
.	4A-/ 4c/ 4f/	8f/
.	.	8f/
=10	=10	=10
2.CC/ 2.C/	4r	4en/
.	4B-/ 4c/ 4en/	4.cc\
.	4B-/ 4c/ 4e/	.
.	.	8e/
=11	=11	=11
2FF/ 2F/	4r	2f/
.	4A-/ 4c/ 4f/	.
4r	4r	8f/
.	.	8f-/
=12	=12	=12
(4GG/	8r	4e-/
.	8B-/ 8d-/ 8e-/	.
4E-\	8r	4b-\
.	8B-/ 8d-/ 8e-/	.
4GG/)	8r	8e-/
.	8B-/ 8d-/ 8e-/	8e-/
=13	=13	=13
(4AA-/	8r	4e-/
.	8A-/ 8c/ 8e-/	.
4E-\	8r	4ee-\
.	8A-/ 8c/ 8e-/	.
4AA-/)	8r	8e-/
.	8A-/ 8c/ 8e-/	8f/
=14	=14	=14
(4GG/	8r	4e-/
.	8B-/ 8d-/ 8e-/	.
4E-\	8r	4b-\
.	8B-/ 8d-/ 8e-/	.
4GG/)	8r	8e-/
.	8B-/ 8d-/ 8e-/	8f/
=15	=15	=15
(4AA-/	8r	4e-/
.	8A-/ 8c/ 8e-/	.
4E-\	8r	4ee-\
.	8A-/ 8c/ 8e-/	.
4AA-/)	8r	8cc\
.	8A-/ 8c/ 8e-/	8cc\
=16	=16	=16
8A-\	8r	4cc\
8r	8c/ 8a-/ 8cc/	.
8G\	8r	4cc\
8r	8c/ 8a-/ 8cc/	.
8G-\	8r	4cc\
8r	8c/ 8a-/ 8cc/	.
=17	=17	=17
8F\	8r	4cc\
8r	8c/ 8a-/ 8cc/	.
8F-\	8r	4cc\
8r	8c/ 8a-/ 8cc/	.
8E-\	8r	4cc\
8r	8c/ 8a-/ 8cc/	.
=18	=18	=18
4EE-/	4r	4.ee-\
4r	4d-/ 4e-/ 4g/	.
.	.	8dd-\
4E-\	4d-/ 4e-/ 4g/	8e-/
.	.	8b-\
=19	=19	=19
4AA-/	4r	2cc\
4r	4c/ 4e-/ 4a-/	.
4A-\	4c/ 4e-/ 4a-/	8cc\
.	.	8cc\
=20	=20	=20
8AA-\ 8A-\	8r	4cc\
8r	8c/ 8a-/ 8cc/	.
8GG\ 8G\	8r	4cc\
8r	8c/ 8a-/ 8cc/	.
8GG-\ 8G-\	8r	4cc\
8r	8c/ 8a-/ 8cc/	.
=21	=21	=21
8GG-/ 8G-/	8r	4cc\
8r	8c/ 8a-/ 8cc/	.
8FF/ 8F/	8r	4cc\
8r	8c/ 8a-/ 8cc/	.
8FF-/ 8F-/	8r	4cc\
8r	8c/ 8a-/ 8cc/	.
=22	=22	=22
4EE-/ 4E-/	4c/ 4e-/ 4a-/ 4cc/	8ee-\
.	.	8een\
2EE-;/ 2E-;/	2d-;/ 2e-;/ 2g;/	4.ff;\
.	.	8g/
=23	=23	=23
4AA-/	4c/ 4e-/ 4a-/	4a-/
4A-\	4r	4r
4r	(8.e-/L	4r
.	16f/Jk)	.
=24	=24	=24
(8EE-\L	(4e-/	2.r
8E-\	.	.
8G\ 8d-\	4b-/)	.
8E-\	.	.
8G\ 8d-\	(8.e-/L	.
8E-\J)	.	.
.	16f/Jk)	.
=25	=25	=25
(8AA-\L	(4e-/	2.r
8E-\	.	.
8A-\ 8c\	4ee-\)	.
8E-\	.	.
8A-\ 8c\	(8.ee-\L	.
(8E-\J)	.	.
.	16een\Jk	.
=26	=26	=26
8EE-\L	8.gg\L	2.r
8E-\	.	.
.	16ff\k	.
8G\ 8d-\	8.ee-\	.
8E-\	.	.
.	16dd-\Jk	.
8B-\ 8d-\	8.f/L	.
8E-\J	.	.
.	16g/Jk	.
=27	=27	=27
4A-\ 4c\)	4a-/)	4r
4AA-/	4r	4r
==:|!	==:|!	==:|!
*-	*-	*-
!!!ENC: Craig Stuart Sapp
!!!END: 2004/06/03/
!!!EFL: 103/651
